X: 34852
T: Roaringwater
R: reel
M: 4/4
K: Dmajor
BGed cAag|f~d3 BGed|cAag f/e/d ef|deed BGed|
cAag f~d3|BGed cAag|1 f/e/d ef d2d2:|2 f/e/d ef dafd||
|:efda fdef|dBAa fdef|dBGe cAag|1 ^eff=e dafd:|2 f/f/f fe deed||

